build/img/sprite/icon-inst.svg

<svg width="14" height="15" viewBox="0 0 14 15" fill="none" xmlns="http://www.w3.org/2000/svg">
<path d="M7 3.40625C5 3.40625 3.40625 5.03125 3.40625 7C3.40625 9 5 10.5938 7 10.5938C8.96875 10.5938 10.5938 9 10.5938 7C10.5938 5.03125 8.96875 3.40625 7 3.40625ZM7 9.34375C5.71875 9.34375 4.65625 8.3125 4.65625 7C4.65625 5.71875 5.6875 4.6875 7 4.6875C8.28125 4.6875 9.3125 5.71875 9.3125 7C9.3125 8.3125 8.28125 9.34375 7 9.34375ZM11.5625 3.28125C11.5625 2.8125 11.1875 2.4375 10.7188 2.4375C10.25 2.4375 9.875 2.8125 9.875 3.28125C9.875 3.75 10.25 4.125 10.7188 4.125C11.1875 4.125 11.5625 3.75 11.5625 3.28125ZM13.9375 4.125C13.875 3 13.625 2 12.8125 1.1875C12 0.375 11 0.125 9.875 0.0625C8.71875 0 5.25 0 4.09375 0.0625C2.96875 0.125 2 0.375 1.15625 1.1875C0.34375 2 0.09375 3 0.03125 4.125C-0.03125 5.28125 -0.03125 8.75 0.03125 9.90625C0.09375 11.0312 0.34375 12 1.15625 12.8438C2 13.6562 2.96875 13.9062 4.09375 13.9688C5.25 14.0312 8.71875 14.0312 9.875 13.9688C11 13.9062 12 13.6562 12.8125 12.8438C13.625 12 13.875 11.0312 13.9375 9.90625C14 8.75 14 5.28125 13.9375 4.125ZM12.4375 11.125C12.2188 11.75 11.7188 12.2188 11.125 12.4688C10.1875 12.8438 8 12.75 7 12.75C5.96875 12.75 3.78125 12.8438 2.875 12.4688C2.25 12.2188 1.78125 11.75 1.53125 11.125C1.15625 10.2188 1.25 8.03125 1.25 7C1.25 6 1.15625 3.8125 1.53125 2.875C1.78125 2.28125 2.25 1.8125 2.875 1.5625C3.78125 1.1875 5.96875 1.28125 7 1.28125C8 1.28125 10.1875 1.1875 11.125 1.5625C11.7188 1.78125 12.1875 2.28125 12.4375 2.875C12.8125 3.8125 12.7188 6 12.7188 7C12.7188 8.03125 12.8125 10.2188 12.4375 11.125Z"/>
</svg>

<svg width="14" height="15" fill="none" xmlns="http://www.w3.org/2000/svg"><path d="M7 3.406C5 3.406 3.406 5.031 3.406 7 3.406 9 5 10.594 7 10.594A3.594 3.594 0 0010.594 7c0-1.969-1.625-3.594-3.594-3.594zm0 5.938A2.34 2.34 0 014.656 7c0-1.281 1.032-2.313 2.344-2.313A2.307 2.307 0 019.313 7C9.313 8.313 8.28 9.344 7 9.344zm4.563-6.063a.84.84 0 00-.844-.844.84.84 0 00-.844.844.84.84 0 00.844.844.84.84 0 00.844-.844zm2.374.844C13.876 3 13.626 2 12.813 1.187 12 .375 11 .125 9.874.063 8.719 0 5.25 0 4.094.063 2.969.126 2 .376 1.156 1.188.344 2 .094 3 .031 4.126c-.061 1.155-.061 4.624 0 5.78.063 1.125.313 2.094 1.125 2.938.844.812 1.813 1.062 2.938 1.125 1.156.062 4.625.062 5.781 0 1.125-.063 2.125-.313 2.938-1.125.812-.844 1.062-1.813 1.124-2.938.063-1.156.063-4.625 0-5.781zm-1.5 7c-.218.625-.718 1.094-1.312 1.344-.938.375-3.125.281-4.125.281-1.031 0-3.219.094-4.125-.281a2.37 2.37 0 01-1.344-1.344C1.156 10.219 1.25 8.031 1.25 7c0-1-.094-3.188.281-4.125a2.41 2.41 0 011.344-1.313c.906-.375 3.094-.28 4.125-.28 1 0 3.188-.095 4.125.28.594.22 1.063.72 1.313 1.313.374.938.28 3.125.28 4.125 0 1.031.095 3.219-.28 4.125z"/></svg>
